X:1
T:Come to Him Now
T:Come to Him Now
T:Hilda B. Tovey
T:Hugh T. Cameron, 1920
T:Public Domain Courtesy of the Cyber Hymnal™
T:Public Domain Courtesy of the Cyber Hymnal™
C:Hilda B. Tovey
Z:Public Domain
Z:Courtesy of the Cyber Hymnal™
%%score 1 ( 2 3 )
L:1/8
Q:1/4=150
M:6/4
K:C
V:1 treble 
V:2 bass 
V:3 bass 
V:1
 [EG]2 [EG]2 [EG]2 [FA]2 [EG]2 [CE]2 | [EG]2 [DF]2 [^CE]2 [DF]6 | %2
w: 1.~Je- sus is plead- ing with|some- one to- night,|
w: 2.~Je- sus is plead- ing with|some- one to- night,|
w: 3.~Je- sus is plead- ing, then|why not to- night|
 [FB]2 [FA]2 [FG]2 [FA]2 [EG]2 [DF]2 | [CE]6- [CE]4 z2 | [EG]2 [EG]2 [EG]2 [FA]2 [EG]2 [CE]2 | %5
w: Some- one who’s still un- der|sin, *|Think- ing that works can a-|
w: Some- one who’s wan- dered a-|way; *|Call- ing you back from the|
w: Turn and make Him now your|choice; *|His blood will blot out the|
 [EG]2 [Ec]2 [GB]2 [FA]4 [^DA][DA] | [EG]2 [EG]2 [Ec]2 [FB]2 [FA]2 [FB]2 | [Ec]6- [Ec]4 z2 || %8
w: tone for the past, When sal-|va- tion is on- ly in|Him. *|
w: path- way of sin, He is|wait- ing in mer- cy to-|day. *|
w: sin of your past, And your|heart in His love will re-|joice. *|
"^Refrain" [EG]2 [EA]2 [EB]2 [Ec]6 | [Fc]2 [FB]2 [FA]2 [FB]6 | [FG]2 [FA]2 [FB]2 [Fd]4 [FB]2 | %11
w: |||
w: Come to Him now,|make no de- lay;|He is the truth, and|
w: |||
 [Ec]2 [^DB]2 [DA]2 [EG]6 | [EG]2 [EA]2 [EB]2 [Ec]6 | [FA]2 [Ac]2 [Ad]2 [^Ge]6 | %14
w: |||
w: He is the way;|Come, be at rest,|why long- er roam?|
w: |||
 [Fd]2 [Fc]2 [^DA]2 [EG]2 !fermata![Ec]2 [^F^d]2 | ([Ge]2 !fermata![EG]2) [Fd]2 [Ec]6 |] %16
w: ||
w: Je- sus now calls you: Come|home, * come home.|
w: ||
V:2
 [C,C]2 [C,C]2 [C,C]2 [C,C]2 [C,C]2 [C,G,]2 | [G,C]2 [G,B,]2 [G,^A,]2 [G,B,]6 | %2
 [G,D]2 [G,C]2 [G,B,]2 [G,C]2 [G,B,]2 G,2 | [C,G,]6- [C,G,]4 z2 | %4
 [C,C]2 [C,C]2 [C,C]2 [C,C]2 [C,C]2 [C,G,]2 | [C,C]2 [C,G,]2 [E,C]2 [F,C]4 C[^F,C] | %6
 [G,C]2 [G,C]2 [G,C]2 [G,D]2 [G,B,]2 G,2 | [C,G,]6- [C,G,]4 z2 || [C,C]2 [C,C]2 [C,C]2 [C,G,]6 | %9
 [D,G,]2 [D,G,]2 [G,B,]2 [G,D]6 | [G,B,]2 [G,C]2 [G,D]2 [G,B,]4 G,2 | %11
 [C,G,]2 [C,^F,]2 [C,F,]2 (G,4 C2) | [C,C]2 [C,C]2 [C,C]2 [C,C]6 | [F,C]2 [F,C]2 [F,A,]2 [E,B,]6 | %14
 [F,A,]2 [F,A,]2 [^F,C]2 [G,C]2 !fermata![A,C]2 [_A,C]2 | !fermata![G,C]4 (B,G,) [C,G,]6 |] %16
V:3
 x12 | x12 | x10 G,2 | x12 | x12 | x12 | x10 G,2 | x12 || x12 | x12 | x10 G,2 | x6 C,6 | x12 | %13
 x12 | x12 | x4 G,2 x6 |] %16

